X: 23
T: The High Reel
M:4/4
L:1/8
K:AMix
|:"A"a2fa ecAB | (3cBA eA fAeA | a2fa ecAc | "G"Bcdc BGGA |
| "A"a2fa ecAB | cdef "G"g2fg | "A"afge fdec | "G"Bcdc BGG2 :|
|:"A"(3cBA eA fAeA | (3cBA af ecAB | (3cBA eA fAec | "G"Bcdc BGGB |
| "A"(3cBA eA fAed | cdef "G"g2fg | "A"afge fdec | "G"Bcdc BGG2 :|

%%sep 1 1 500

